X: 8641
T: Croppies' March, The
R: polka
M: 2/4
K: Dmajor
|:A>B AF|AB de|fa ef/e/|dB gB|
A>B AF|AB de|fa ef/e/|d2 d2:|
|:fa ag/f/|gb ba|fa ef/e/|dB gB|
A>B AF|AB de|fa ef/e/|d2 d2:|

